X: 1034
T: Alston, The
R: hornpipe
M: 4/4
K: Fmajor
|:c>B|A>c f2 f2 a>f|e>g b2 b2 g>a|b>g (3agf g>ef>a|g>ec>=B c>d (3cB_B|
A>c f2- f2 a>f|e>g B2- B2 d>B|A>fB>g A>a (3gfe|f2 F2 F2:|
|:c>B|A>cf>c a>cf>A|d>BF>D B,2 d>c|=B>dg>d b>d (3gfd|e>cG>E C2 (3c=B_B|
A>cf>A f>F (3agf|e>gB>A B2 (3dcB|A>fB>g A>a (3gfe|f2 (3FFF F2:|

